X:6050
T:Simcho-Na
O:england
M:4/4
L:1/8
Q:1/4=180
C:Trad Israeli
S:Finish on Part A
D:Shock Horo by Caravansera
K:Dm
P:Introduction
f/2e/2 dd de f g2|f/2e/2 d ec d2 d2|G A2 A  AA A2|Ac =BG A2 A2||
P:A
||A2 A A2 A A2|Ac=BG A2 A2|Addd dd d2|Addd ef d2| Addd dd d2|
Addd ef d2|g2 f2 e2 d2|g2 d d2 d d2|g2 c c2 c c2|e2 d ^c2 B A2|
B/2A/2 G2 G ^FG A2|B/2A/2 G2 G ^FG A2|d A2 z2 d A2|d2 d2 d2 d2||
P:B
F/2E/2 D2 D EF G2|A2 G A2 B AG|F/2E/2 D2 D EF G2|F/2E/2 D EC D2 D2:|
P:C
B2 B c2 B A2|G2 G A2 G F2|FGAc d2 e/2d/2c|d4 z4:|


